!!!!SEGMENT: pl-wtm--r-1755_stefani-jozef--coda.krn
!!!cenid: 18xx:1906
!!!COM: Stefani, Józef
!!!COM-rism: pe30024097
!!!CDT: 1800/04/16-1876/03/19
!!!CNT: Polish
!!!OTL: Coda
!!!PDT:
!!!AGN: Secular
!!!OMD:Coda
!!!SMS-siglum: PL-Wtm
!!!SMS-shelfmark: R 1755
!!!NIFC-rismID: 1001130980
!!!URL-scan: http://repozytorium.nifc.pl/skany/pl-wtm-nut--r1755
!!!ONB-nifc:
!!!SMS-variant:
!!!SMS-altvar:
!!!system-decoration: (s1,s2,s3,s4,s5,s6,s7,s8),({g1},s11,s12,s13,s14)
**kern	**kern	**dynam	**kern	**kern	**kern	**kern	**dynam	**kern	**kern	**dynam	**kern	**kern	**kern	**kern	**dynam	**kern	**kern	**dynam
*	*	*	*	*	*group1	*group1	*group1	*	*	*	*	*	*	*	*	*	*	*
*part14	*part13	*part13	*part12	*part11	*part10	*part9	*part9	*part8	*part7	*part7	*part6	*part5	*part4	*part3	*part3	*part2	*part1	*part1
*staff14	*staff13	*	*staff12	*staff11	*staff10	*staff9	*	*staff8	*staff7	*	*staff6	*staff5	*staff4	*staff3	*	*staff2	*staff1	*
*	*	*	*	*	*I""Violini	*I""Violini	*	*	*	*	*	*	*	*	*	*	*	*
*I"Trombone	*I"C: Basſo	*	*I"Violoncelli	*I"Viole	*	*	*	*I"Tympani	*I"in d. Tromby	*	*I"Fagotti	*I"in D: Corni	*I"in a Clarinetti	*I"Oboe	*	*I"Picolo	*I"Flauto	*
*	*	*	*	*	*I''vl	*I''vl	*	*	*	*	*	*	*	*	*	*	*	*
*I'trb	*I'cb	*	*I'vlc	*I'vle	*	*	*	*I'timp	*I'tr	*	*I'fg	*I'cor	*I'cl	*I'ob	*	*I'fl picc	*I'fl	*
*clefF4	*clefF4	*	*clefF4	*clefC3	*clefG2	*clefG2	*	*clefF4	*clefG2	*	*clefF4	*clefG2	*clefG2	*clefG2	*	*clefG2	*clefG2	*
*	*ITrd0c0	*	*	*	*	*	*	*	*ITrd-1c-2	*	*	*ITrd6c10	*ITrd2c3	*	*	*ITrd0c0	*	*
*k[f#c#]	*k[f#c#]	*	*k[f#c#]	*k[f#c#]	*k[f#c#]	*k[f#c#]	*	*k[f#c#]	*k[f#c#]	*	*k[f#c#]	*k[f#c#]	*k[f#c#]	*k[f#c#]	*	*k[f#c#]	*k[f#c#]	*
*M3/4	*M3/4	*	*M3/4	*M3/4	*M3/4	*M3/4	*	*M3/4	*M3/4	*	*M3/4	*M3/4	*M3/4	*M3/4	*	*M3/4	*M3/4	*
*all\right	*all\right	*	*all\right	*all\right	*all\right	*all\right	*	*all\right	*all\right	*	*all\right	*all\right	*all\right	*all\right	*	*all\right	*all\right	*
!	!	!LO:DY:rj	!	!	!	!	!LO:DY:rj	!	!	!LO:DY:rj	!	!	!	!	!	!	!	!
8AA/	(16AA/LL	f	(16AA/LL	(16A/LL	(16A/LL	(16A/LL	f	8AA/	8A/	f	(16AA/LL	8r	(16A/LL	8r	.	8r	8r	.
.	32BB/L	.	32BB/L	32B/L	32B/L	32B/L	.	.	.	.	32BB/L	.	32B/L	.	.	.	.	.
.	32C#/JJJ	.	32C#/JJJ	32c#/JJJ	32c#/JJJ	32c#/JJJ	.	.	.	.	32C#/JJJ	.	32c#/JJJ	.	.	.	.	.
=1	=1	=1	=1	=1	=1	=1	=1	=1	=1	=1	=1	=1	=1	=1	=1	=1	=1	=1
4D/	4D/)	.	4D/)	4d/)	4d/)	4d/)	.	4D/	4d/	.	4D/)	8r	8d/)	8r	f	8r	8r	f
.	.	.	.	.	.	.	.	.	.	.	.	16a\LL 16f#\	16a/LL 16f#/	16aa\LL 16ff#\	.	16aa\LL	16fff#\LL	.
.	.	.	.	.	.	.	.	.	.	.	.	16a\JJ 16f#\	16a/JJ 16f#/	16aa\JJ 16ff#\	.	16aa\JJ	16fff#\JJ	.
!	!	!	!	!LO:TX:a:t=Col b&colon;	!LO:TX:a:t=Col 1o. Unis	!	!	!	!	!	!	!	!	!	!	!	!	!
4r	4r	.	4ryy	4ryy	4ryy	4r	.	4r	4r	.	4r	8a\L 8f#\	8a/L 8f#/	8aa\L 8ff#\	.	8aa\L	8fff#\L	.
.	.	.	.	.	.	.	.	.	.	.	.	8a\ 8f#\	8a/ 8f#/	8aa\ 8ff#\	.	8aa\	8fff#\	.
4r	8r	.	8ryy	8ryy	8ryy	8r	.	4r	4r	.	8r	8g#X\ 8e#X\	8g#/ 8e#X/	8gg#X\ 8ee#X\	.	8gg#X\	8eee#X\	.
.	(<32AA/LLL	.	(<32AA/LLLyy	(<32A/LLLyy	(32A/LLLyy	(32A/LLL	.	.	.	.	(32A\LLL 32AA\	8a\J 8f#\	8a/J 8f#/	8aa\J 8ff#\	.	8aa\J	8fff#\J	.
.	32BB/	.	32BB/yy	32B/yy	32B/yy	32B/	.	.	.	.	32B\ 32BB\	.	.	.	.	.	.	.
.	32C#/	.	32C#/yy	32c#/yy	32c#/yy	32c#/	.	.	.	.	32c#\ 32C#\	.	.	.	.	.	.	.
.	32D/JJJ	.	32D/JJJyy	32d/JJJyy	32d/JJJyy	32d/JJJ	.	.	.	.	32d\JJJ 32D\	.	.	.	.	.	.	.
=2	=2	=2	=2	=2	=2	=2	=2	=2	=2	=2	=2	=2	=2	=2	=2	=2	=2	=2
8r	8E\)	.	8E\)yy	8e\)yy	8e/)yy	8e/)	.	8r	8r	.	16e\ 16E\)	16gn\ 16en\	16gnX/ 16en/	16ggn\ 16ee\	.	16ggn\	16eeen\	.
.	.	.	.	.	.	.	.	.	.	.	16r	16r	16r	16r	.	16r	16r	.
8.AA/	8r	.	8ryy	8ryy	8ryy	8r	.	8.AA/	8.a/ 8.A^/	.	8.g\ 8.e^<\	8.e/ 8.A^/	8.gg\ 8.ee^<\	8.gg\ 8.ee^<\	.	8.eee^<\	8.ggg^<\	.
.	4r	.	4ryy	4ryy	4ryy	4r	.	.	.	.	.	.	.	.	.	.	.	.
16ryy	.	.	.	.	.	.	.	16ryy	16ryy	.	16f#\LL 16d'\	16ryy	16ff#\LL 16dd'\	16ff#\LL 16dd\	.	16ddd\LL	16fff#'\LL	.
8r	.	.	.	.	.	.	.	8r	8r	.	16e\ 16c#'\	8r	16ee\ 16cc#'\	16ee\ 16cc#\	.	16ccc#\	16eee'\	.
.	.	.	.	.	.	.	.	.	.	.	16d\JJ 16B'\	.	16dd\JJ 16b'\	16dd\JJ 16b\	.	16bb\JJ	16ddd'\JJ	.
8r	8r	.	8ryy	8ryy	8ryy	8r	.	8r	8r	.	16c#\LL 16A'\	4r	16cc#\LL 16a'\	16cc#/LL 16a/	.	16aa\LL	16ccc#'\LL	.
.	.	.	.	.	.	.	.	.	.	.	16B\ 16G'\	.	16b\ 16g'\	16b/ 16g/	.	16gg\	16bb'\	.
8AA/	(16AA/LL	.	(16AA/LLyy	(16A/LLyy	(16A/LLyy	(16A/LL	.	8AA/	8a/ 8A/	.	16A\ 16F#'\	.	16a\ 16f#'\	16a/ 16f#/	.	16ff#\	16aa'\	.
.	32BB/L	.	32BB/Lyy	32B/Lyy	32B/Lyy	32B/L	.	.	.	.	16G\JJ 16E'\	.	16g\JJ 16e'\	16g/JJ 16e/	.	16ee\JJ	16gg'\JJ	.
.	32C#/JJJ	.	32C#/JJJyy	32c#/JJJyy	32c#/JJJ)yy	32c#/JJJ)	.	.	.	.	.	.	.	.	.	.	.	.
=3	=3	=3	=3	=3	=3	=3	=3	=3	=3	=3	=3	=3	=3	=3	=3	=3	=3	=3
*	*	*	*	*	*	*	*	*	*	*	*^	*	*	*	*	*	*	*
!	!	!	!	!	!	!	!	!	!	!	!	!	!	!	!LO:TX:t=P:problem:mixed beam	!	!	!	!
4D/	4D/)	.	4D/)yy	4d/)yy	4d/yy	4d/	.	4D/	4a/ 4d/	.	4F#/	4D\	8r	8f#/L 8d/	8f-/L 8d/	.	8dd\L	8ff#\L	.
.	.	.	.	.	.	.	.	.	.	.	.	.	16a\LL 16f#\	16a/L 16f#/	16aa\L 16ff#\	.	16aa\L	16fff#\L	.
.	.	.	.	.	.	.	.	.	.	.	.	.	16a\JJ 16f#\	16a/JJ 16f#/	16aa\JJ 16ff#\	.	16aa\JJ	16fff#\JJ	.
4r	4r	.	4ryy	4ryy	4ryy	4r	.	4r	4r	.	4r	4ryy	8a\L 8f#\	8a/L 8f#/	8aa\L 8ff#\	.	8aa\L	8fff#\L	.
.	.	.	.	.	.	.	.	.	.	.	.	.	8a\ 8f#\	8a/ 8f#/	8aa\ 8ff#\	.	8aa\	8fff#\	.
4r	8r	.	8ryy	8ryy	8ryy	8r	.	4r	4r	.	8r	4ryy	8g#X\ 8e#X\	8g#/ 8e#X/	8gg#X\ 8ee#X\	.	8gg#X\	8eee#X\	.
.	(<32AA/LLL	.	(<32AA/LLLyy	(32A/LLLyy	(32A/LLLyy	(32A/LLL	.	.	.	.	(32A\LLL 32AA\	.	8a\J 8f#\	8a/J 8f#/	8aa\J 8ff#\	.	8aa\J	8fff#\J	.
.	32BB/	.	32BB/yy	32B/yy	32B/yy	32B/	.	.	.	.	32B\ 32BB\	.	.	.	.	.	.	.	.
.	32C#/	.	32C#/yy	32c#/yy	32c#/yy	32c#/	.	.	.	.	32c#\ 32C#\	.	.	.	.	.	.	.	.
.	32D/JJJ	.	32D/JJJyy	32d/JJJyy	32d/JJJyy	32d/JJJ	.	.	.	.	32d\JJJ 32D\	.	.	.	.	.	.	.	.
*	*	*	*	*	*	*	*	*	*	*	*v	*v	*	*	*	*	*	*	*
=4	=4	=4	=4	=4	=4	=4	=4	=4	=4	=4	=4	=4	=4	=4	=4	=4	=4	=4
8r	8E\)	.	8E\)yy	8e\)yy	8e/)yy	8e/)	.	8r	8r	.	16e\ 16E\)	16gn\ 16en\	16gnX/ 16enX/	16ggn\ 16ee\	.	16ggn\	16eeen\	.
.	.	.	.	.	.	.	.	.	.	.	16r	16r	16r	16r	.	16r	16r	.
8.AA/	8r	.	8ryy	8ryy	8ryy	8r	.	8.AA/	8.a/ 8.A/	.	8.g\ 8.e^<\	8.e/ 8.A/	8.gg\ 8.ee^<\	8.gg\ 8.ee^<\	.	8.eee^<\	8.ggg^<\	.
.	4r	.	4ryy	4ryy	4ryy	4r	.	.	.	.	.	.	.	.	.	.	.	.
16ryy	.	.	.	.	.	.	.	16ryy	16ryy	.	16f#\LL 16d\	16ryy	16ff#\LL 16dd\	16ff#\LL 16dd\	.	16ddd\LL	16fff#\LL	.
8r	.	.	.	.	.	.	.	8r	8r	.	16e\ 16c#\	8r	16ee\ 16cc#\	16ee\ 16cc#\	.	16ccc#\	16eee\	.
.	.	.	.	.	.	.	.	.	.	.	16d\JJ 16B\	.	16dd\JJ 16b\	16dd\JJ 16b\	.	16bb\JJ	16ddd\JJ	.
8r	8r	.	8ryy	8ryy	8ryy	8r	.	8r	8r	.	16c#\LL 16A\	4r	16cc#\LL 16a\	16cc#/LL 16a/	.	16aa\LL	16ccc#\LL	.
.	.	.	.	.	.	.	.	.	.	.	16B\ 16G\	.	16b\ 16g\	16b/ 16g/	.	16gg\	16bb\	.
8AA/	16AA/LL	.	16AA/LLyy	16A/LLyy	(16A/LL	(16a\LL	.	8AA/	8a/ 8A/	.	16A\ 16F#\	.	16a\ 16f#\	16a/ 16f#/	.	16ff#\	16aa\	.
.	32BB/L	.	32BB/Lyy	32B/Lyy	32B/L	32b\L	.	.	.	.	16G\JJ 16E\	.	16g\JJ 16e\	16g/JJ 16e/	.	16ee\JJ	16gg\JJ	.
.	32C#/JJJ	.	32C#/JJJyy	32c#/JJJyy	32c#/JJJ	32cc#\JJJ	.	.	.	.	.	.	.	.	.	.	.	.
=5	=5	=5	=5	=5	=5	=5	=5	=5	=5	=5	=5	=5	=5	=5	=5	=5	=5	=5
*	*	*	*	*tremolo	*	*	*	*	*	*	*	*	*	*	*	*	*	*
8D\	8D\	.	8D\yy	16d\LL	16d/LL)	16dd\)	.	8D/	8dd/ 8d/	.	8F#\ 8D\	8d/ 8F#/	8f#/ 8d/	8f#/ 8d/	.	8dd\	8ff#\	.
.	.	.	.	16d\	16f#/ 16A/	16dd\LL|	.	.	.	.	.	.	.	.	.	.	.	.
8r	8r	.	8ryy	16d\	16f#/ 16A/	(16cc#\	.	8r	8r	.	8r	8r	8r	8r	.	8r	8r	.
.	.	.	.	16d\	16f#/JJ 16A/	16dd\JJ	.	.	.	.	.	.	.	.	.	.	.	.
*	*	*	*	*	*tremolo	*	*	*	*	*	*	*	*	*	*	*	*	*
8d\	8d\	.	8d\yy	16d\	16f#/LL 16A/	16ee\LL	.	8D/	8dd/ 8f#/	.	8d\ 8F#\	8d/ 8F#/	8dd\ 8f#\	8ff#\ 8dd\	.	8ff#\	8ddd\	.
.	.	.	.	16d\	16f#/ 16A/	16dd\	.	.	.	.	.	.	.	.	.	.	.	.
8r	8r	.	8ryy	16d\	16f#/ 16A/	16cc#\	.	8r	8r	.	8r	8r	8r	8r	.	8r	8r	.
.	.	.	.	16d\	16f#/ 16A/	16dd\JJ	.	.	.	.	.	.	.	.	.	.	.	.
8D\	8D\	.	8D\yy	16d\	16f#/ 16A/	16ee\LL	.	8D/	8dd/ 8f#/	.	8F#\ 8D\	8d/ 8F#/	8f#/ 8d/	8ff#\ 8dd\	.	8dd\	8ff#\	.
.	.	.	.	16d\	16f#/ 16A/	16dd\	.	.	.	.	.	.	.	.	.	.	.	.
8r	8r	.	8ryy	16d\	16f#/ 16A/	16cc#\	.	8r	8r	.	8r	8r	8r	8r	.	8r	8r	.
.	.	.	.	16d\JJ	16f#/JJ 16A/	16dd\JJ)	.	.	.	.	.	.	.	.	.	.	.	.
!!LO:PB:g=original
=6	=6	=6	=6	=6	=6	=6	=6	=6	=6	=6	=6	=6	=6	=6	=6	=6	=6	=6
!	!	!	!	!	!	!	!	!	!	!	!LO:TX:a:t=Col b&colon;	!	!	!	!	!	!	!
!	!	!	!	!	!	!	!	!	!	!	!LO:TX:t=P:problem:t.7-13 ukryte	!	!	!	!	!	!	!
8BB/	8BB/	.	8BB/yy	16d\LL	16f#/LL 16B/	16ff#\LL|	.	8D/	8ff#\ 8dd\	.	8BB/yy	8f#\ 8d\	8f#/ 8d/	8ff#\ 8dd\	.	8dd\	8ff#\	.
.	.	.	.	16d\	16f#/ 16B/	(16dd\|	.	.	.	.	.	.	.	.	.	.	.	.
8r	8r	.	8ryy	16d\	16f#/ 16B/	16cc#\	.	8r	8r	.	8ryy	8r	8r	8r	.	8r	8r	.
.	.	.	.	16d\	16f#/ 16B/	16dd\JJ	.	.	.	.	.	.	.	.	.	.	.	.
*	*	*	*	*	*	*	*	*rep	*rep	*	*	*rep	*	*rep	*	*	*	*
8B\	8B\	.	8B\yy	16d\	16f#/ 16B/	16ee\LL)	.	8D/	8ff#\ 8dd\	.	8B\yy	8f#\ 8d\	8dd/ 8f#/	8ff#\ 8dd\	.	8ff#\	8ddd\	.
.	.	.	.	16d\	16f#/ 16B/	16dd\	.	.	.	.	.	.	.	.	.	.	.	.
8r	8r	.	8ryy	16d\	16f#/ 16B/	16cc#\	.	8r	8r	.	8ryy	8r	8r	8r	.	8r	8r	.
.	.	.	.	16d\	16f#/ 16B/	16dd\JJ	.	.	.	.	.	.	.	.	.	.	.	.
*	*	*	*	*	*	*	*	*Xrep	*Xrep	*	*	*Xrep	*	*Xrep	*	*	*	*
*	*	*	*	*	*	*	*	*rep	*rep	*	*	*rep	*	*rep	*	*	*	*
8BB/	8BB/	.	8BB/yy	16d\	16f#/ 16B/	16ee\LL	.	8D/	8ff#\ 8dd\	.	8BB/yy	8f#\ 8d\	8f#/ 8d/	8ff#\ 8dd\	.	8dd\	8ff#\	.
.	.	.	.	16d\	16f#/ 16B/	16dd\	.	.	.	.	.	.	.	.	.	.	.	.
8r	8r	.	8ryy	16d\	16f#/ 16B/	16cc#\	.	8r	8r	.	8ryy	8r	8r	8r	.	8r	8r	.
.	.	.	.	16d\JJ	16f#/JJ 16B/	16dd\JJ	.	.	.	.	.	.	.	.	.	.	.	.
*	*	*	*	*	*	*	*	*Xrep	*Xrep	*	*	*Xrep	*	*Xrep	*	*	*	*
=7	=7	=7	=7	=7	=7	=7	=7	=7	=7	=7	=7	=7	=7	=7	=7	=7	=7	=7
*	*	*	*	*	*	*	*	*	*^	*	*	*	*	*	*	*	*	*
8GG/	8GG/	.	8GG/yy	16e\LL	16g/LL 16B/	16gg\LL	.	2.r	8ee/	8ee\	.	8GG/yy	8g\ 8e\	8g/ 8e/	8gg\ 8ee\	.	8ee\	8gg\	.
.	.	.	.	16e\	16g/ 16B/	16ee\	.	.	.	.	.	.	.	.	.	.	.	.	.
8r	8r	.	8ryy	16e\	16g/ 16B/	16dd#X\	.	.	8r	8ryy	.	8ryy	8r	8r	8r	.	8r	8r	.
.	.	.	.	16e\	16g/ 16B/	16ee\JJ	.	.	.	.	.	.	.	.	.	.	.	.	.
*	*	*	*	*	*	*	*	*	*rep	*rep	*	*	*rep	*	*rep	*	*	*	*
8G\	8G\	.	8G\yy	16e\	16g/ 16B/	16ff#\LL	.	.	8ee/	8ee\	.	8G\yy	8g\ 8e\	8ee\ 8g\	8gg\ 8ee\	.	8gg\	8eee\	.
.	.	.	.	16e\	16g/ 16B/	16ee\	.	.	.	.	.	.	.	.	.	.	.	.	.
8r	8r	.	8ryy	16e\	16g/ 16B/	16dd#\	.	.	8r	8ryy	.	8ryy	8r	8r	8r	.	8r	8r	.
.	.	.	.	16e\	16g/ 16B/	16ee\JJ	.	.	.	.	.	.	.	.	.	.	.	.	.
*	*	*	*	*	*	*	*	*	*Xrep	*Xrep	*	*	*Xrep	*	*Xrep	*	*	*	*
*	*	*	*	*	*	*	*	*	*rep	*rep	*	*	*rep	*	*rep	*	*	*	*
8GG/	8GG/	.	8GG/yy	16e\	16g/ 16B/	16ff#\LL	.	.	8ee/	8ee\	.	8GG/yy	8g\ 8e\	8g/ 8e/	8gg\ 8ee\	.	8ee\	8gg\	.
.	.	.	.	16e\	16g/ 16B/	16ee\	.	.	.	.	.	.	.	.	.	.	.	.	.
8r	8r	.	8ryy	16e\	16g/ 16B/	16dd#\	.	.	8r	8ryy	.	8ryy	8r	8r	8r	.	8r	8r	.
.	.	.	.	16e\JJ	16g/JJ 16B/	16ee\JJ	.	.	.	.	.	.	.	.	.	.	.	.	.
*	*	*	*	*	*	*	*	*	*Xrep	*Xrep	*	*	*Xrep	*	*Xrep	*	*	*	*
*	*	*	*	*	*	*	*	*	*v	*v	*	*	*	*	*	*	*	*	*
=8	=8	=8	=8	=8	=8	=8	=8	=8	=8	=8	=8	=8	=8	=8	=8	=8	=8	=8
8AA/	8AA/	.	8AA/yy	16e\LL 16c#\	16g/LL 16A/	16cc#\LL	.	8AA/	8ee/ 8a/	.	8AA/yy	8e/ 8A/	8e/ 8c#/	8ee\ 8cc#\	.	8cc#\	8ee\	.
.	.	.	.	16e\ 16c#\	16g/ 16A/	16aa\	.	.	.	.	.	.	.	.	.	.	.	.
8r	8r	.	8ryy	16e\ 16c#\	16g/ 16A/	16gg#X\	.	8r	8r	.	8ryy	8r	8r	8r	.	8r	8r	.
.	.	.	.	16e\ 16c#\	16g/ 16A/	16aa\JJ	.	.	.	.	.	.	.	.	.	.	.	.
*	*	*	*	*	*	*	*	*rep	*rep	*	*	*rep	*	*rep	*	*	*	*
8A\	8A\	.	8A\yy	16e\ 16c#\	16g/ 16A/	16bb\LL	.	8AA/	8ee/ 8a/	.	8A\yy	8e/ 8A/	8cc#/ 8e/	8ee\ 8cc#\	.	8ee\	8ccc#\	.
.	.	.	.	16e\ 16c#\	16g/ 16A/	16aa\	.	.	.	.	.	.	.	.	.	.	.	.
8r	8r	.	8ryy	16e\ 16c#\	16g/ 16A/	16gg#\	.	8r	8r	.	8ryy	8r	8r	8r	.	8r	8r	.
.	.	.	.	16e\ 16c#\	16g/ 16A/	16aa\JJ	.	.	.	.	.	.	.	.	.	.	.	.
*	*	*	*	*	*	*	*	*Xrep	*Xrep	*	*	*Xrep	*	*Xrep	*	*	*	*
*	*	*	*	*	*	*	*	*rep	*rep	*	*	*rep	*	*rep	*	*	*	*
8AA/	8AA/	.	8AA/yy	16e\ 16c#\	16g/ 16A/	16bb\LL	.	8AA/	8ee/ 8a/	.	8AA/yy	8e/ 8A/	8e/ 8c#/	8ee\ 8cc#\	.	8cc#\	8ee\	.
.	.	.	.	16e\ 16c#\	16g/ 16A/	16aa\	.	.	.	.	.	.	.	.	.	.	.	.
8r	8r	.	8ryy	16e\ 16c#\	16g/ 16A/	16bb\	.	8r	8r	.	8ryy	8r	8r	8r	.	8r	8r	.
.	.	.	.	16e\JJ 16c#\	16g/JJ 16A/	16ccc#\JJ	.	.	.	.	.	.	.	.	.	.	.	.
*	*	*	*	*Xtremolo	*Xtremolo	*	*	*Xrep	*Xrep	*	*	*Xrep	*	*Xrep	*	*	*	*
=9	=9	=9	=9	=9	=9	=9	=9	=9	=9	=9	=9	=9	=9	=9	=9	=9	=9	=9
!	!	!	!	!	!L	!	!	!	!	!	!	!	!	!	!	!	!	!
8D\	8D\	.	8D\yy	16d\LL	16f#/ 16A/|	16ddd\|	.	8D/	8dd/ 8f#/	.	8D/yy	8f#\L 8d\	8f#/L 8d/	8ff#\L 8dd\	.	8dd\L	8ff#\L	.
.	.	.	.	16a\ 16f#\	16dd\LL|	(16ddd\LL	.	.	.	.	.	.	.	.	.	.	.	.
8r	8r	.	8ryy	16a\ 16f#\	(16cc#\	16ccc#\	.	8r	8r	.	8ryy	8f#\J 8d\	8f#/J 8d/	8ff#\J 8dd\	.	8dd\J	8ff#\J	.
.	.	.	.	16a\JJ 16f#\	16dd\JJ	16ddd\JJ	.	.	.	.	.	.	.	.	.	.	.	.
*	*	*	*	*tremolo	*	*	*	*rep	*rep	*	*	*	*	*	*	*	*	*
8d\	8d\	.	8d\yy	16a\LL 16f#\	16ee\LL	16eee\LL)	.	8D/	8dd/ 8f#/	.	8d\yy	8r	8r	8r	.	8r	8r	.
.	.	.	.	16a\ 16f#\	16dd\	16ddd\	.	.	.	.	.	.	.	.	.	.	.	.
8r	8r	.	8ryy	16a\ 16f#\	16cc#\	16ccc#\	.	8r	8r	.	8ryy	8f#\ 8d\	8dd/ 8f#/	8ff#\ 8dd\	.	8ff#\	8ddd\	.
.	.	.	.	16a\ 16f#\	16dd\JJ)	16ddd\JJ	.	.	.	.	.	.	.	.	.	.	.	.
*	*	*	*	*	*	*	*	*Xrep	*Xrep	*	*	*	*	*	*	*	*	*
*	*	*	*	*	*rep	*rep	*	*rep	*rep	*	*	*	*	*	*	*	*	*
8D\	8D\L	.	8D\Lyy	16a\ 16f#\	16ee\LL	16eee\LL	.	8D/	8dd/ 8f#/	.	8D\Lyy	8r	8r	8r	.	8r	8r	.
.	.	.	.	16a\ 16f#\	16dd\	16ddd\	.	.	.	.	.	.	.	.	.	.	.	.
8r	(32F#\LL	.	(32F#\LLyy	16a\ 16f#\	16cc#\	16ccc#\	.	8r	8r	.	(32F#\LLyy	8f#\ 8d\	8f#/ 8d/	8ff#\ 8dd\	.	8dd\	8ff#\	.
.	32E\	.	32E\yy	.	.	.	.	.	.	.	32E\yy	.	.	.	.	.	.	.
.	32D\	.	32D\yy	16a\JJ 16f#\	16dd\JJ	16ddd\JJ	.	.	.	.	32D\yy	.	.	.	.	.	.	.
.	32C#\JJJ	.	32C#\JJJyy	.	.	.	.	.	.	.	32C#\JJJyy	.	.	.	.	.	.	.
*	*	*	*	*	*Xrep	*Xrep	*	*Xrep	*Xrep	*	*	*	*	*	*	*	*	*
=10	=10	=10	=10	=10	=10	=10	=10	=10	=10	=10	=10	=10	=10	=10	=10	=10	=10	=10
!	!	!	!	!	!LO:TX:a:t=Col 1o in 8va	!	!	!	!	!	!	!	!	!	!	!	!	!
!	!	!	!	!	!LO:TX:t=P:problem:t.11-13 ukryte	!	!	!	!	!	!	!	!	!	!	!	!	!
8BB/	8BB/)	.	8BB/)yy	16b\LL 16d\	16ff#\|yy	16fff#\|	.	8D/	8ff#\ 8dd\	.	8BB/)yy	8r	8r	8r	.	8r	8r	.
.	.	.	.	16b\ 16d\	(16dd\LL|yy	(16ddd\LL|	.	.	.	.	.	.	.	.	.	.	.	.
8r	8r	.	8ryy	16b\ 16d\	16cc#\yy	16ccc#\	.	8r	8r	.	8ryy	8f#\ 8d\	8f#/ 8d/	8ff#\ 8dd\	.	8dd\	8ff#\	.
.	.	.	.	16b\ 16d\	16dd\JJyy	16ddd\JJ	.	.	.	.	.	.	.	.	.	.	.	.
*	*	*	*	*	*	*	*	*rep	*rep	*	*	*rep	*	*rep	*	*	*	*
8B\	8B\	.	8B\yy	16b\ 16d\	16ee\LL)yy	16eee\LL)	.	8D/	8ff#\ 8dd\	.	8B\yy	8r	8r	8r	.	8r	8r	.
.	.	.	.	16b\ 16d\	16dd\yy	16ddd\	.	.	.	.	.	.	.	.	.	.	.	.
8r	8r	.	8ryy	16b\ 16d\	16cc#\yy	16ccc#\	.	8r	8r	.	8ryy	8f#\ 8d\	8dd\ 8f#\	8ff#\ 8dd\	.	8ff#\	8ddd\	.
.	.	.	.	16b\ 16d\	16dd\JJyy	16ddd\JJ	.	.	.	.	.	.	.	.	.	.	.	.
*	*	*	*	*	*	*	*	*Xrep	*Xrep	*	*	*Xrep	*	*Xrep	*	*	*	*
*	*	*	*	*	*rep	*rep	*	*rep	*rep	*	*	*rep	*	*rep	*	*	*	*
8BB/	8BB/L	.	8BB/Lyy	16b\ 16d\	16ee\LLyy	16eee\LL	.	8D/	8ff#\ 8dd\	.	8BB/Lyy	8r	8r	8r	.	8r	8r	.
.	.	.	.	16b\ 16d\	16dd\yy	16ddd\	.	.	.	.	.	.	.	.	.	.	.	.
8r	(32D/LL	.	(32D/LLyy	16b\ 16d\	16cc#\yy	16ccc#\	.	8r	8r	.	(32D/LLyy	8f#\ 8d\	8f#/ 8d/	8ff#\ 8dd\	.	8dd\	8ff#\	.
.	32C#/	.	32C#/yy	.	.	.	.	.	.	.	32C#/yy	.	.	.	.	.	.	.
.	32BB/	.	32BB/yy	16b\JJ 16d\	16dd\JJyy	16ddd\JJ	.	.	.	.	32BB/yy	.	.	.	.	.	.	.
.	32AA/JJJ	.	32AA/JJJyy	.	.	.	.	.	.	.	32AA/JJJyy	.	.	.	.	.	.	.
*	*	*	*	*	*Xrep	*Xrep	*	*Xrep	*Xrep	*	*	*Xrep	*	*Xrep	*	*	*	*
=11	=11	=11	=11	=11	=11	=11	=11	=11	=11	=11	=11	=11	=11	=11	=11	=11	=11	=11
*	*	*	*	*	*	*	*	*	*^	*	*	*	*	*	*	*	*	*
8GG/	8GG/)	.	8GG/)yy	16b\LL 16e\	16gg\|yy	16ggg\|	.	2.r	8ee/	8ee\	.	8GG/)yy	8r	8r	8r	.	8r	8r	.
.	.	.	.	16b\ 16e\	(16ee\LL|yy	(16eee\LL|	.	.	.	.	.	.	.	.	.	.	.	.	.
8r	8r	.	8ryy	16b\ 16e\	16dd#X\yy	16ddd#X\	.	.	8r	8ryy	.	8ryy	8g\ 8e\	8g/ 8e/	8gg\ 8ee\	.	8ee\	8gg\	.
.	.	.	.	16b\ 16e\	16ee\JJyy	16eee\JJ	.	.	.	.	.	.	.	.	.	.	.	.	.
*	*	*	*	*	*	*	*	*	*rep	*rep	*	*	*rep	*	*	*	*	*	*
8G\	8G\	.	8G\yy	16b\ 16e\	16ff#\LL)yy	16fff#\LL)	.	.	8ee/	8ee\	.	8G\yy	8r	8r	8r	.	8r	8r	.
.	.	.	.	16b\ 16e\	16ee\yy	16eee\	.	.	.	.	.	.	.	.	.	.	.	.	.
8r	8r	.	8ryy	16b\ 16e\	16dd#\yy	16ddd#\	.	.	8r	8ryy	.	8ryy	8g\ 8e\	8ee\ 8g\	8gg\ 8ee\	.	8gg\	8eee\	.
.	.	.	.	16b\ 16e\	16ee\JJyy	16eee\JJ	.	.	.	.	.	.	.	.	.	.	.	.	.
*	*	*	*	*	*	*	*	*	*Xrep	*Xrep	*	*	*Xrep	*	*	*	*	*	*
*	*	*	*	*	*rep	*rep	*	*	*rep	*rep	*	*	*rep	*	*	*	*	*	*
8GG/	8GG/	.	8GG/yy	16b\ 16e\	16ff#\LLyy	16fff#\LL	.	.	8ee/	8ee\	.	8GG/yy	8r	8r	8r	.	8r	8r	.
.	.	.	.	16b\ 16e\	16ee\yy	16eee\	.	.	.	.	.	.	.	.	.	.	.	.	.
8r	8r	.	8ryy	16b\ 16e\	16dd#\yy	16ddd#\	.	.	8r	8ryy	.	8ryy	8g\ 8e\	8g/ 8e/	8gg\ 8ee\	.	8ee\	8gg\	.
.	.	.	.	16b\JJ 16e\	16ee\JJyy	16eee\JJ	.	.	.	.	.	.	.	.	.	.	.	.	.
*	*	*	*	*	*Xrep	*Xrep	*	*	*Xrep	*Xrep	*	*	*Xrep	*	*	*	*	*	*
*	*	*	*	*	*	*	*	*	*v	*v	*	*	*	*	*	*	*	*	*
!!LO:PB:g=original
=12	=12	=12	=12	=12	=12	=12	=12	=12	=12	=12	=12	=12	=12	=12	=12	=12	=12	=12
8AA/	8AA/	.	8AA/yy	16a\LL 16g\	16cc#/LLyy	16ccc#\LL	.	8AA/	8ee/ 8a/	.	8AA/yy	8r	8r	8r	.	8r	8r	.
.	.	.	.	16a\ 16g\	16a/yy	16aa\	.	.	.	.	.	.	.	.	.	.	.	.
8r	8r	.	8ryy	16a\ 16g\	16g#X/yy	16gg#X\	.	8r	8r	.	8ryy	8e/ 8A/	8e/ 8c#/	8ee\ 8cc#\	.	8cc#\	8ee\	.
.	.	.	.	16a\ 16g\	16a/JJyy	16aa\JJ	.	.	.	.	.	.	.	.	.	.	.	.
*	*	*	*	*	*	*	*	*rep	*rep	*	*	*rep	*	*rep	*	*	*	*
8A\	8A\	.	8A\yy	16a\ 16g\	16b/LLyy	16bb\LL	.	8AA/	8ee/ 8a/	.	8A\yy	8r	8r	8r	.	8r	8r	.
.	.	.	.	16a\ 16g\	16a/yy	16aa\	.	.	.	.	.	.	.	.	.	.	.	.
8r	8r	.	8ryy	16a\ 16g\	16g#/yy	16gg#\	.	8r	8r	.	8ryy	8e/ 8A/	8cc#/ 8e/	8ee\ 8cc#\	.	8ee\	8ccc#\	.
.	.	.	.	16a\ 16g\	16a/JJyy	16aa\JJ	.	.	.	.	.	.	.	.	.	.	.	.
*	*	*	*	*	*	*	*	*Xrep	*Xrep	*	*	*Xrep	*	*Xrep	*	*	*	*
*	*	*	*	*	*	*	*	*rep	*rep	*	*	*rep	*	*rep	*	*	*	*
8AA/	8AA/	.	8AA/yy	16a\ 16g\	16b\LLyy	16bb\LL	.	8AA/	8ee/ 8a/	.	8AA/yy	8r	8r	8r	.	8r	8r	.
.	.	.	.	16a\ 16g\	16a\yy	16aa\	.	.	.	.	.	.	.	.	.	.	.	.
8r	8r	.	8ryy	16a\ 16g\	16b\yy	16bb\	.	8r	8r	.	8ryy	8e/ 8A/	8e/ 8c#/	8ee\ 8cc#\	.	8gg\	8ccc#\	.
.	.	.	.	16a\JJ 16g\	16cc#\JJyy	16ccc#\JJ	.	.	.	.	.	.	.	.	.	.	.	.
*	*	*	*	*Xtremolo	*	*	*	*Xrep	*Xrep	*	*	*Xrep	*	*Xrep	*	*	*	*
=13	=13	=13	=13	=13	=13	=13	=13	=13	=13	=13	=13	=13	=13	=13	=13	=13	=13	=13
*	*	*	*	*	*	*	*	*	*	*	*	*	*^	*	*	*	*	*
4D\	4D\	.	4D\yy	4a\ 4f#\	4dd\	8ddd\L	.	4D/	4dd/ 4f#/	.	4D\	4f#\ 4d\	8f#/L	4d\	4ff#\ 4dd\	.	8ff#\L	8ddd\L	.
.	.	.	.	.	.	16aa'\L	.	.	.	.	.	.	16a/L	.	.	.	16aa\L	16aa\L	.
.	.	.	.	.	.	16aa'\JJ	.	.	.	.	.	.	16a/JJ	.	.	.	16aa\JJ	16aa\JJ	.
8r	8r	.	8ryy	8r	8r	(8gg#X\L	.	8r	8r	.	8r	8r	8g#/L	8r	8r	.	8gg#X\L	8gg#X\L	.
8AA/L	16AA/LL	.	16AA/LLyy	16c#\LL	16gn/LL 16A/	8aa\)	.	16AA/LL	16a/LL 16A/	.	16c#\LL 16A\	16g\LL 16A\	8a/	16a\LL	16cc#/LL 16g'/	.	8aa\	8aa\	.
.	16AA/JJ	.	16AA/JJyy	16c#\JJ	16g/JJ 16A/	.	.	16AA/JJ	16a/JJ 16A/	.	16c#\JJ 16A\	16g\JJ 16A\	.	16a\JJ	16cc#/JJ 16g'/	.	.	.	.
!	!	!	!	!	!	!LO:TX:t=P:problem:diminuendolikeaccent	!	!	!	!	!	!	!	!	!	!	!	!	!
8AA/	8AA/L	.	8AA/Lyy	8c#\L	8g/L 8A/	8.fff#^<\	.	8AA/L	8a/L 8A/	.	8c#\L 8A\	8g\L 8A\	8.ff#/	8a\L	8cc#/L 8g'/	.	8.fff#\	8.fff#^<\	.
8AA/J	8AA/J	.	8AA/Jyy	8c#\J	8g/J 8A/	.	.	8AA/J	8a/J 8A/	.	8c#\J 8A\	8g\J 8A\	.	8a\J	8cc#/J 8g'/	.	.	.	.
.	.	.	.	.	.	16eee\Jk	.	.	.	.	.	.	16ee/Jk	.	.	.	16eee\Jk	16eee\Jk	.
=14	=14	=14	=14	=14	=14	=14	=14	=14	=14	=14	=14	=14	=14	=14	=14	=14	=14	=14	=14
*	*	*	*	*	*	*	*	*	*	*	*	*	*	*	*	*	*rep	*rep	*
!	!	!	!	!	!	!	!	!	!	!	!	!	!	!	!	!	!LO:TX:a:t=Col Flauto	!	!
!	!	!	!	!	!	!	!	!	!	!	!	!	!	!	!	!	!LO:TX:t=P:problem:t.15-18 ukryte	!	!
4D/	4D/	.	4D/yy	4d\	4f#/ 4A/	8ddd\L	.	4D/	4a/ 4d/	.	4d\ 4D\	4f#\ 4d\	8dd/L	4a\	4dd/ 4f#/	.	8ddd\Lyy	8ddd\L	.
.	.	.	.	.	.	16aa'\L	.	.	.	.	.	.	16a/L	.	.	.	16aa\Lyy	16aa\L	.
.	.	.	.	.	.	16aa'\JJ	.	.	.	.	.	.	16a/JJ	.	.	.	16aa\JJyy	16aa\JJ	.
8r	8r	.	8ryy	8r	8r	8gg#X\L	.	8r	8r	.	8r	8r	8g#/L	8r	8r	.	8gg#X\Lyy	8gg#X\L	.
8AA/L	16AA/LL	.	16AA/LLyy	16c#\LL	16g/LL 16A/	8aa\	.	16AA/LL	16a/LL 16A/	.	16c#\LL 16A\	16g\LL 16A\	8a/	16a\LL	16cc#/LL 16g'/	.	8aa\yy	8aa\	.
.	16AA/JJ	.	16AA/JJyy	16c#\JJ	16g/JJ 16A/	.	.	16AA/JJ	16a/JJ 16A/	.	16c#\JJ 16A\	16g\JJ 16A\	.	16a\JJ	16cc#/JJ 16g'/	.	.	.	.
!	!	!	!	!	!	!LO:TX:t=P:problem:diminuendolikeaccent	!	!	!	!	!	!	!	!	!	!	!	!	!
8AA/	8AA/L	.	8AA/Lyy	8c#\L	8g/L 8A/	8.fff#^<\	.	8AA/L	8a/L 8A/	.	8c#\L 8A\	8g\L 8A\	8.ff#/	8a\L	8cc#/L 8g'/	.	8.fff#^<\yy	8.fff#^<\	.
8AA/J	8AA/J	.	8AA/Jyy	8c#\J	8g/J 8A/	.	.	8AA/J	8a/J 8A/	.	8c#\J 8A\	8g\J 8A\	.	8a\J	8cc#/J 8g'/	.	.	.	.
.	.	.	.	.	.	16eee\Jk	.	.	.	.	.	.	16ee/Jk	.	.	.	16eee\Jkyy	16eee\Jk	.
*	*	*	*	*	*	*	*	*	*	*	*	*	*	*	*	*	*Xrep	*Xrep	*
=15	=15	=15	=15	=15	=15	=15	=15	=15	=15	=15	=15	=15	=15	=15	=15	=15	=15	=15	=15
8D\	8D\	.	8D\yy	8d\	8f#/ 8A/	(8.ddd\L	.	8D/	8a/ 8d/	.	8d\ 8D\	8f#\ 8d\	8dd/	8a\	8dd/ 8f#/	.	8ddd\yy	8ddd\	.
8r	8r	.	8ryy	8r	(16dd\LL	.	.	8r	8r	.	8r	8r	8r	8ryy	8r	.	8ryy	8r	.
.	.	.	.	.	32cc#\L	32ccc#\LL	.	.	.	.	.	.	.	.	.	.	.	.	.
.	.	.	.	.	32dd\JJJ)	32ddd\JJJ)	.	.	.	.	.	.	.	.	.	.	.	.	.
4r	4r	.	4ryy	4r	(8.a/L	(8.aa\L	.	4r	4r	.	4r	4a\ 4A\	4r	4ryy	4r	.	4ryy	4r	.
.	.	.	.	.	32g#X/LL	32gg#X\LL	.	.	.	.	.	.	.	.	.	.	.	.	.
.	.	.	.	.	32a/JJJ)	32aa\JJJ)	.	.	.	.	.	.	.	.	.	.	.	.	.
4r	4r	.	4ryy	4r	(8.f#/L	(8.ff#\L	.	4r	4r	.	4r	4f#\ 4F#\	4r	4ryy	4r	.	4ryy	4r	.
.	.	.	.	.	32e#X/LL	32ee#X\LL	.	.	.	.	.	.	.	.	.	.	.	.	.
.	.	.	.	.	32f#/JJJ)	32ff#\JJJ)	.	.	.	.	.	.	.	.	.	.	.	.	.
*	*	*	*	*	*	*	*	*	*	*	*	*	*v	*v	*	*	*	*	*
=16	=16	=16	=16	=16	=16	=16	=16	=16	=16	=16	=16	=16	=16	=16	=16	=16	=16	=16
*	*	*	*	*	*	*	*	*	*^	*	*	*^	*	*	*	*	*	*
4d\	(8.d\L	.	(8.d\Lyy	8.d/L	8.d/L	(8.dd\L	.	4D/	4dd/ 4d/	4ryy	.	(8.d\L 8.D\	4d/ 4D/	4D\	(8.dd\L	(8.ddd\L 8.dd\	.	(8.ddd\Lyy	(8.ddd\L	.
.	32c#\LL	.	32c#\LLyy	32c#/LL	32c#/LL	32cc#\LL	.	.	.	.	.	32c#\LL 32C#\	.	.	32cc#\LL	32ccc#\LL 32cc#\	.	32ccc#\LLyy	32ccc#\LL	.
.	32d\JJJ)	.	32d\JJJ)yy	32d/JJJ	32d/JJJ	32dd\JJJ)	.	.	.	.	.	32d\JJJ 32D\)	.	.	32dd\JJJ)	32ddd\JJJ 32dd\)	.	32ddd\JJJ)yy	32ddd\JJJ)	.
4A\	(8.A\L	.	(8.A\Lyy	8.A/L	8.a/L	(8.a/L	.	4r	4a/ 4A/	4ryy	.	(8.A\L 8.AA\	4A/	4A\	(8.a\L	(8.aa\L 8.a\	.	(8.aa\Lyy	(8.aa\L	.
.	32G#X\LL	.	32G#X\LLyy	32G#X/LL	32g#X/LL	32g#X/LL	.	.	.	.	.	32G#X\LL 32GG#X\	.	.	32g#\LL	32gg#X\LL 32g#X\	.	32gg#X\LLyy	32gg#X\LL	.
.	32A\JJJ)	.	32A\JJJ)yy	32A/JJJ	32a/JJJ	32a/JJJ)	.	.	.	.	.	32A\JJJ 32AA\)	.	.	32a\JJJ)	32aa\JJJ 32a\)	.	32aa\JJJ)yy	32aa\JJJ)	.
4F#\	(8.F#\L	.	(8.F#\Lyy	8.F#/L	8.f#/L	(8.f#/L	.	4r	4f#/	4f#\	.	(8.F#\L 8.FF#\	4F#/	4F#\	(8.f#/L	(8.ff#/L 8.f#/	.	(8.ff#\Lyy	(8.ff#\L	.
.	32E#X\LL	.	32E#X\LLyy	32E#X/LL	32e#X/LL	32e#X/LL	.	.	.	.	.	32E#X\LL 32EE#X\	.	.	32e#X/LL	32ee#X/LL 32e#X/	.	32ee#X\LLyy	32ee#X\LL	.
.	32F#\JJJ)	.	32F#\JJJ)yy	32F#/JJJ	32f#/JJJ	32f#/JJJ)	.	.	.	.	.	32F#\JJJ 32FF#\)	.	.	32f#/JJJ)	32ff#/JJJ 32f#/)	.	32ff#\JJJ)yy	32ff#\JJJ)	.
=17	=17	=17	=17	=17	=17	=17	=17	=17	=17	=17	=17	=17	=17	=17	=17	=17	=17	=17	=17	=17
4D\	4D\	.	4D\yy	8D/	8d/	8d/	.	2.r	8d/	8d\	.	8D/ 8DD/	8D/	8D\	8d/	8dd/ 8d/	.	8dd\yy	8dd\	.
.	.	.	.	8r	8r	8r	.	.	8r	8ryy	.	8r	8r	8ryy	8r	8r	.	8ryy	8r	.
!	!	!	!	!	!	!LO:TX:t=P:problem:diminuendolikeaccent	!	!	!	!	!	!	!	!	!	!	!	!	!	!
4r	4r	.	4ryy	[4D/	[4d/	[4d^>/	.	.	4r	4ryy	.	4r	4r	4ryy	4r	4r	.	4ryy	4r	.
4r	4r	.	4ryy	16D/LL]	16d/LL]	16d/LL]	.	.	4r	4ryy	.	4r	4r	4ryy	4r	4r	.	4ryy	4r	.
.	.	.	.	(32E/L	(32e/L	(32e/L	.	.	.	.	.	.	.	.	.	.	.	.	.	.
.	.	.	.	32F#/JJJ	32f#/JJJ	32f#/JJJ	.	.	.	.	.	.	.	.	.	.	.	.	.	.
.	.	.	.	32G/LLL	32g/LLL	32g/LLL	.	.	.	.	.	.	.	.	.	.	.	.	.	.
.	.	.	.	32A/	32a/	32a/	.	.	.	.	.	.	.	.	.	.	.	.	.	.
.	.	.	.	32B/	32b/	32b/	.	.	.	.	.	.	.	.	.	.	.	.	.	.
.	.	.	.	32c#/JJJ)	32cc#/JJJ	32cc#/JJJ	.	.	.	.	.	.	.	.	.	.	.	.	.	.
*	*	*	*	*	*	*	*	*	*v	*v	*	*	*v	*v	*	*	*	*	*	*
!!LO:PB:g=original
=18	=18	=18	=18	=18	=18	=18	=18	=18	=18	=18	=18	=18	=18	=18	=18	=18	=18	=18
!	!	!	!	!	!LO:TX:t=P:problem:brak zakończenia łuku	!LO:TX:t=P:problem:brak zakończenia łuku	!	!	!	!	!	!	!	!	!	!	!	!
4r	4r	.	4ryy	8d\	8dd/)	8dd\)	.	2.r	4r	.	4r	4r	4r	4r	.	4ryy	4r	.
.	.	.	.	8r	8r	8r	.	.	.	.	.	.	.	.	.	.	.	.
4D\	[4D\	.	[4D\yy	[4d\	[4d/	([4dd\	.	.	4dd/ 4d/	.	[4D\	4d/ 4D/	[4d/	[4dd/ [4d/	.	([4dd\yy	(>[4dd\	.
4r	16D\LL]	.	16D\LL]yy	16d\LL]	16d/LL]	16dd\LL]	.	.	4r	.	16D\LL]	4r	(>16d/LL]	(>16dd/]LL 16d/]	.	16dd\LL]yy	16dd\LL]	.
.	(32E\L	.	(32E\Lyy	(32e\L	(<32e/L	32ee\L	.	.	.	.	32E\L	.	32e/L	32ee/L 32e/	.	32ee\Lyy	32ee\L	.
.	32F#\JJJ	.	32F#\JJJyy	32f#\JJJ	32f#/JJJ	32ff#\JJJ	.	.	.	.	(32F#\JJJ	.	32f#/	32ff#/ 32f#/	.	32ff#\yy	32ff#\	.
.	32G\LLL	.	32G\LLLyy	32g\LLL	32g/LLL	32gg\LLL	.	.	.	.	32G\LLL	.	32g/	32gg/ 32g/	.	32gg\yy	32gg\	.
.	32A\	.	32A\yy	32a\	32a/	32aa\	.	.	.	.	32A\	.	32a/	32aa/ 32a/	.	32aa\yy	32aa\	.
.	32B\	.	32B\yy	32b\	32b/	32bb\	.	.	.	.	32B\	.	32b/	32bb/ 32b/	.	32bb\yy	32bb\	.
.	32c#\JJJ)	.	32c#\JJJ)yy	32cc#\JJJ	32cc#/JJJ	32ccc#\JJJ)	.	.	.	.	32c#\JJJ	.	32cc#/JJJ)	32ccc#/JJJ 32cc#/)	.	32ccc#\JJJ)yy	32ccc#\JJJ)	.
=19	=19	=19	=19	=19	=19	=19	=19	=19	=19	=19	=19	=19	=19	=19	=19	=19	=19	=19
4D\	4d\	.	4d\yy	4dd\)	4dd\)	4ddd\	.	4D/	4dd/ 4d/	.	4d\)	4d/ 4D/	4dd\	4ddd\ 4dd\	.	4ddd\yy	4ddd\	.
4r	4r	.	4ryy	4r	4r	4r	.	4r	4r	.	4r	4r	4r	4r	.	4ryy	4r	.
4r	4r	.	4ryy	4r	4r	4r	.	4r	4r	.	4r	4r	4r	4r	.	4ryy	4r	.
=20	=20	=20	=20	=20	=20	=20	=20	=20	=20	=20	=20	=20	=20	=20	=20	=20	=20	=20
*	*	*	*	*^	*^	*^	*	*	*	*	*	*	*^	*^	*	*	*	*
4d\	4d\ 4D\	.	4d\yy 4D\yy	4dd\ 4f#\ 4A\	4ryy	4ddd\ 4ff#\ 4d\	4ryy	4fff#\ 4a\ 4d\	4ryy	.	4D/	4dd/ 4d/	.	4d\ 4D\	4d/ 4F#/	4ff#\ 4dd\	4reyy	4aa\ 4ff#\	4rgyy	.	4ddd\yy	4ddd\	.
4r	4r	.	4ryy	4r	4ryy	4r	4ryy	4r	4ryy	.	4r	4r	.	4r	4r	4r	4reyy	4r	4rgyy	.	4ryy	4r	.
8.r	8.r	.	8.ryy	8.r	8.ryy	8.r	8.ryy	8.r	8.ryy	.	4r	8.r	.	8.r	8.r	8.r	8.reyy	8.r	8.rgyy	.	8.ryy	8.r	.
16D\	16D\	.	16D\yy	16D/	16D\	16d/	16d\	16d/	16d\	.	.	16d/	.	16D/ 16DD/	16d/ 16D/	16d/	16d\	16d/	16d\	.	16dd\yy	16dd\	.
*	*	*	*	*v	*v	*	*	*	*	*	*	*	*	*	*	*	*	*	*	*	*	*	*
=21	=21	=21	=21	=21	=21	=21	=21	=21	=21	=21	=21	=21	=21	=21	=21	=21	=21	=21	=21	=21	=21	=21
*	*	*	*	*	*	*	*	*	*	*tremolo	*	*	*	*	*	*	*	*	*	*	*	*
2.D;\	2.D;\	.	2.D;\yy	2.D;/	2.d;/	2.d\	2.d;/	2.d\	.	32D/LLL	2.d;/	.	2.D/ 2.DD;/	2.d/ 2.D;/	2.d;/	2.d\	2.d;/	2.d\	.	2.dd;\yy	2.dd;\	.
.	.	.	.	.	.	.	.	.	.	32D/	.	.	.	.	.	.	.	.	.	.	.	.
.	.	.	.	.	.	.	.	.	.	32D/	.	.	.	.	.	.	.	.	.	.	.	.
.	.	.	.	.	.	.	.	.	.	32D/	.	.	.	.	.	.	.	.	.	.	.	.
.	.	.	.	.	.	.	.	.	.	32D/	.	.	.	.	.	.	.	.	.	.	.	.
.	.	.	.	.	.	.	.	.	.	32D/	.	.	.	.	.	.	.	.	.	.	.	.
.	.	.	.	.	.	.	.	.	.	32D/	.	.	.	.	.	.	.	.	.	.	.	.
.	.	.	.	.	.	.	.	.	.	32D/JJJ	.	.	.	.	.	.	.	.	.	.	.	.
.	.	.	.	.	.	.	.	.	.	8D/	.	.	.	.	.	.	.	.	.	.	.	.
.	.	.	.	.	.	.	.	.	.	8r	.	.	.	.	.	.	.	.	.	.	.	.
.	.	.	.	.	.	.	.	.	.	4r;	.	.	.	.	.	.	.	.	.	.	.	.
*	*	*	*	*	*	*	*	*	*	*	*	*	*	*	*v	*v	*	*	*	*	*	*
*	*	*	*	*	*	*	*v	*v	*	*	*	*	*	*	*	*v	*v	*	*	*	*
==	==	==	==	==	==	==	==	==	==	==	==	==	==	==	==	==	==	==	==
*-	*-	*-	*-	*-	*-	*-	*-	*-	*-	*-	*-	*-	*-	*-	*-	*-	*-	*-	*-
!!!RDF**kern: > = above
!!!RDF**kern: < = below
!!!RDF**kern: | = vertical stroke
!!!EED: Andrzej Borzym
!!!EST: 2021-05-15
!!!ENC: Marcin Jachim
!!!END: 2021-04-20
